!!!COM: Martinů, Bohuslav (Jan)
!!!OTL: Sonatina for Two Violins and Violincello
!!!OMV: IV: Poco allegro
!!!example: 517
!!!work: Mau-26
**kern	**kern	**dynam	**kern	**dynam	**kern	**dynam
*part3	*part3	*part3	*part2	*part2	*part1	*part1
*staff4	*staff3	*	*staff2	*	*staff1	*
*I"Piano	*	*	*I"Violin II	*	*I"Violin I	*
*I'Pno.	*	*	*I'Vln. II	*	*I'Vln. I	*
*clefF4	*clefG2	*	*clefG2	*	*clefG2	*
*k[]	*k[]	*	*k[]	*	*k[]	*
*C:	*C:	*	*C:	*	*C:	*
*M4/4	*M4/4	*	*M4/4	*	*M4/4	*
=45	=	=	=	=	=	=
1r	8b-XL	.	8cc#XL	mf	4gg	mf
.	8d#X	.	8b-X	.	.	.
.	8e	.	8a	.	8ggL	.
.	8AJ	.	8cc#J	.	8eeJ	.
.	8b-L	.	8b-L	.	8aaL	.
.	8d#	.	8a	.	8ee	.
.	8e	.	8cc#	.	8gg	.
.	8AJ	.	8b-J	.	8eeJ	.
=46	=46	=46	=46	=46	=46	=46
1r	8b-XL	.	8aL	.	8bb-XL	.
.	8d#X	.	8cc#X	.	8ee	.
.	8e	.	8b-X	.	8cccn	.
.	8AJ	.	8aJ	.	8eeJ	.
.	8b-L	.	8cc#L	.	8aaL	.
.	8d#	.	8b-	.	8ee	.
.	8e	.	8a	.	8bb-	.
.	8AJ	.	8cc#J	.	8eeJ	.
=47	=47	=47	=47	=47	=47	=47
1r	8b-XL	<	8b-XL	.	8cccnL	.
.	8d#X	.	8a	.	8ee	.
.	8e	.	8cc#X	<	8aa	<
.	8AJ	.	8b-J	.	8eeJ	.
.	8b-L	.	8aL	.	8ggL	.
.	8d#	.	8cc#	.	8ee	.
.	8e	.	8b-	.	8aa	.
.	8AJ	.	8aJ	[[	8aJ	[[
=48	=48	=48	=48	=48	=48	=48
1r	8ee-XL	[	8ff#XL	[	4dd'	[
.	8g#X	.	8ee-X	.	.	.
.	8a	.	8dd	.	8dddL	.
.	8dnJ	.	8ff#J	.	8ddJ	.
.	8ee-L	.	8ee-L	.	8dddL	.
.	8g#	.	8dd	.	8dd	.
.	8a	.	8ff#	.	8ccc	.
.	8dJ	.	8ee-J	.	8ddJ	.
=49	=49	=49	=49	=49	=49	=49
!!linebreak:original
1r	8ee-XL	.	8ddL	.	8bb-XL	.
.	8g#X	.	8ff#X	.	8dd	.
.	8a	.	8ee-X	.	8ccc	.
.	8dJ	.	8ddJ	.	8ddJ	.
.	8ee-L	.	8ff#L	.	8bb-L	.
.	8g#	.	8ee-J	.	8dd	.
.	8a	.	8dd	.	8aa	.
.	8dJ	.	8r	.	8ddJ	.
=50	=50	=50	=50	=50	=50	=50
1r	8ee-XL	.	8ccL	.	8ggL	.
.	8g#X	.	8b-X	.	8d	.
.	8a	.	8a	.	8ff#X	.
.	8dJ	.	8ccJ	.	8dJ	.
.	8ee-L	.	8b-L	.	8eeL	.
.	8g#	.	8aJ	.	8d	.
.	8a	.	8b-	.	8ee-X	.
.	8dJ	.	8r	.	8dJ	.
=51	=51	=51	=51	=51	=51	=51
4r	8ddL	.	8aL	.	8ccL	.
.	8e-XJ	.	8g#X	.	8d	.
8c#XL	4r	.	8f#X	.	8a	.
8DJ	.	.	8aJ	.	8dJ	.
4r	8ddL	.	8g#L	.	8ee-XL	.
.	8e-J	.	8f#J	.	8d	.
8c#L	4r	.	8a	.	8cc	.
8DJ	.	.	8r	.	8dJ	.
=52	=52	=52	=52	=52	=52	=52
4r	8ddL	.	8f#XL	.	8aL	.
.	8e-XJ	.	8e-X	.	8d	.
8c#XL	4r	.	8d	.	8cc	.
8DJ	.	.	8f#J	.	8dJ	.
4r	8ddL	.	8e-L	.	8b-XL	.
.	8e-J	.	8d	.	8d	.
8c#L	4r	.	8f#	.	8a	.
8DJ	.	.	8dJ	.	8dJ	.
==	==	==	==	==	==	==
*-	*-	*-	*-	*-	*-	*-
!!!CDT: 1890/12/08-1959/08/28
!!!CBL: Polička, Bohemia
!!!CDL: Liestal, Switzerland
!!!CNT: Czech
!!!AGN: Instrumental; Chamber
!!!MCN:
!!!MDT: 1905/04/14
!!!MGN:
!!!MLC: London, United Kingdom
!!!MPD: 1931
!!!MPN: Lindesay, B.; Ramsay, M.
!!!ODT: 1930
!!!PDT: 1931
!!!excerpt-start-measure: 45
!!!excerpt-end-measure: 52
!!!excerpt-start-time: 0:55
!!!excerpt-end-time: 1:05
!!!EEV: 2020/01/17
!!!system-decoration: [(s1,s2)]{(s3,s4)}
!!!ONB: Converted from MusicXML on 2020/01/17
